assets/Woman mechanic/Light/Flat/woman_mechanic_flat_light.svg

<svg width="32" height="32" viewBox="0 0 32 32" fill="none" xmlns="http://www.w3.org/2000/svg">
<path d="M8.63008 8.36407C8.94429 8.06009 9.19998 7.81273 9.19998 7.56982H20.8C20.8 7.81273 21.0557 8.06009 21.3699 8.36407C21.8706 8.8485 22.52 9.47672 22.52 10.4598C22.52 10.9698 22.4 11.4598 22.19 11.8898C22.12 12.0298 22.12 12.1998 22.19 12.3498C22.4 12.7798 22.51 13.2498 22.51 13.7598C22.51 15.5398 21.07 16.9798 19.29 16.9798H10.71C8.92998 16.9798 7.48998 15.5398 7.48998 13.7598C7.48998 13.2498 7.59998 12.7798 7.80998 12.3498C7.87998 12.1998 7.87998 12.0298 7.80998 11.8898C7.59998 11.4598 7.47998 10.9698 7.47998 10.4598C7.47998 9.47672 8.12935 8.8485 8.63008 8.36407Z" fill="#212121"/>
<path d="M4 26.5V30H25.9844V26.5664C25.9892 23.153 24.4378 20.0827 22 18.047L21 18L20 16.7168C18.4982 15.9396 16.796 15.5 14.9922 15.5C13.1948 15.5 11.498 15.9321 10 16.698L9 18L8 18.0134C5.55709 20.0317 4 23.0852 4 26.5Z" fill="#D3D3D3"/>
<path d="M10 16.698C9.28445 17.0639 8.61422 17.5059 8 18.0133V30H22V18.047C21.386 17.5342 20.7158 17.0871 20 16.7167V22C20 22.5522 19.5523 23 19 23H11C10.4477 23 10 22.5522 10 22V16.698Z" fill="#0084CE"/>
<path d="M11.88 21.54L14.59 19.2C14.83 19 15.17 19 15.41 19.2L18.12 21.54C18.49 21.8 19 21.54 19 21.08V16.24C17.76 15.76 16.41 15.49 15 15.49C13.59 15.49 12.24 15.76 11 16.24V21.08C11 21.54 11.51 21.8 11.88 21.54Z" fill="#E6E6E6"/>
<path d="M12.24 24H10.79C9.8 24 9 24.8 9 25.79C9 26.78 9.8 27.58 10.79 27.58H12.24C13.23 27.58 14.03 26.78 14.03 25.79C14.03 24.8 13.23 24 12.24 24Z" fill="#F8312F"/>
<path d="M12.24 27.08H10.79C10.08 27.08 9.5 26.5 9.5 25.79C9.5 25.08 10.08 24.5 10.79 24.5H12.24C12.95 24.5 13.53 25.08 13.53 25.79C13.53 26.51 12.96 27.08 12.24 27.08Z" fill="#E6E6E6"/>
<path d="M15 18.67C13.8932 18.67 13 17.75 13 16.61V14.05C13 12.92 13.8932 12 15 12C16.1068 12 17 12.92 17 14.06V16.62C16.9903 17.75 16.0971 18.67 15 18.67Z" fill="#F4C6AD"/>
<path d="M12.0262 10.63C12.0262 11.5302 11.2965 12.26 10.3962 12.26C9.49601 12.26 8.76624 11.5302 8.76624 10.63C8.76624 9.72978 9.49601 9 10.3962 9C11.2965 9 12.0262 9.72978 12.0262 10.63Z" fill="#F4C6AD"/>
<path d="M21.2237 10.63C21.2237 11.5302 20.494 12.26 19.5937 12.26C18.6935 12.26 17.9637 11.5302 17.9637 10.63C17.9637 9.72978 18.6935 9 19.5937 9C20.494 9 21.2237 9.72978 21.2237 10.63Z" fill="#F4C6AD"/>
<path d="M18.91 7.30983H15.73C14.47 7.30983 13.29 6.68983 12.58 5.64983C12.45 5.46983 12.19 5.49983 12.11 5.69983L12.04 5.87983C11.81 6.43983 11.38 6.86983 10.86 7.10983C10.83 7.12983 10.79 7.13983 10.76 7.14983C10.53 7.25983 9.97996 7.62983 9.95996 8.57983L10.09 11.7498C10.21 14.5598 12.37 16.4398 15 16.4398C17.63 16.4398 19.8 14.5598 19.91 11.7498L20.03 8.72983C20.02 7.39983 19.09 7.30983 18.91 7.30983Z" fill="#FFD7C2"/>
<path d="M12.39 9.1499C12.96 9.1499 13.42 9.5399 13.71 9.9799C13.4738 10.0518 13.2435 10.1178 13.0154 10.1832C12.5771 10.3088 12.1472 10.4321 11.7 10.5899L11.22 10.1599C11.02 9.9799 11.04 9.6599 11.26 9.4999C11.57 9.2799 12 9.1499 12.39 9.1499Z" fill="black"/>
<path d="M17.6299 9.1499C17.0699 9.1499 16.6099 9.5399 16.3199 9.9799C16.5645 10.0554 16.804 10.1245 17.042 10.1932C17.4656 10.3154 17.8845 10.4362 18.3199 10.5899L18.7999 10.1599C18.9999 9.9799 18.9799 9.6599 18.7699 9.4999C18.4499 9.2699 18.0299 9.1499 17.6299 9.1499Z" fill="black"/>
<path d="M11.21 10.31C11.37 9.7 11.92 9.25 12.57 9.25C13.25 9.25 13.81 9.74 13.94 10.38C13.97 10.52 13.85 10.65 13.71 10.65H11.48C11.31 10.65 11.17 10.48 11.21 10.31Z" fill="white"/>
<path d="M18.81 10.31C18.65 9.7 18.1 9.25 17.45 9.25C16.77 9.25 16.21 9.74 16.08 10.38C16.05 10.52 16.17 10.65 16.31 10.65H18.54C18.72 10.65 18.85 10.48 18.81 10.31Z" fill="white"/>
<path d="M11.89 10.41C11.89 9.92002 12.29 9.52002 12.78 9.52002C13.27 9.52002 13.67 9.92002 13.67 10.41C13.67 10.5 13.66 10.57 13.64 10.65H11.92C11.9 10.57 11.89 10.49 11.89 10.41Z" fill="#7D4533"/>
<path d="M18.1399 10.41C18.1399 9.92002 17.7399 9.52002 17.2499 9.52002C16.7499 9.52002 16.3499 9.92002 16.3599 10.41C16.3599 10.5 16.3699 10.57 16.3899 10.65H18.1099C18.1299 10.57 18.1399 10.49 18.1399 10.41Z" fill="#7D4533"/>
<path d="M12.78 9.8999C13.06 9.8999 13.29 10.1299 13.29 10.4099C13.29 10.4999 13.27 10.5799 13.23 10.6499H12.33C12.29 10.5799 12.27 10.4999 12.27 10.4099C12.27 10.1299 12.5 9.8999 12.78 9.8999Z" fill="black"/>
<path d="M17.25 9.8999C16.97 9.8999 16.74 10.1299 16.74 10.4099C16.74 10.4999 16.76 10.5799 16.8 10.6499H17.7C17.74 10.5799 17.76 10.4999 17.76 10.4099C17.76 10.1299 17.53 9.8999 17.25 9.8999Z" fill="black"/>
<path d="M12.6301 10.0599C12.6301 10.1483 12.5584 10.2199 12.4701 10.2199C12.3817 10.2199 12.3101 10.1483 12.3101 10.0599C12.3101 9.97154 12.3817 9.8999 12.4701 9.8999C12.5584 9.8999 12.6301 9.97154 12.6301 10.0599Z" fill="white"/>
<path d="M17.0999 10.0599C17.0999 10.1483 17.0283 10.2199 16.9399 10.2199C16.8515 10.2199 16.7799 10.1483 16.7799 10.0599C16.7799 9.97154 16.8515 9.8999 16.9399 9.8999C17.0283 9.8999 17.0999 9.97154 17.0999 10.0599Z" fill="white"/>
<path d="M15 13.43C14.48 13.43 13.99 13.31 13.58 13.09C13.44 13.02 13.29 13.18 13.38 13.31C13.72 13.84 14.32 14.19 15 14.19C15.68 14.19 16.28 13.84 16.62 13.31C16.71 13.18 16.56 13.02 16.42 13.09C16 13.3 15.52 13.43 15 13.43Z" fill="#990838"/>
<path d="M14.63 10.1901L14.12 11.8301C14.02 12.1701 14.27 12.5101 14.62 12.5101H15.37C15.72 12.5101 15.97 12.1701 15.87 11.8301L15.36 10.1901C15.25 9.8201 14.74 9.8201 14.63 10.1901Z" fill="#E5AF93"/>
<path d="M11.23 8.49991C11.28 8.58991 11.37 8.63991 11.46 8.63991C11.5 8.63991 11.55 8.62991 11.59 8.60991C11.6 8.59991 12.32 8.19991 13.13 8.33991C13.27 8.36991 13.41 8.26991 13.45 8.10991C13.47 7.96991 13.38 7.82991 13.23 7.79991C12.2717 7.62741 11.4419 8.07025 11.3392 8.12505C11.3348 8.12743 11.33 8.12991 11.33 8.12991C11.2 8.20991 11.16 8.36991 11.23 8.49991Z" fill="#212121"/>
<path d="M18.41 8.59991C18.45 8.62991 18.49 8.63991 18.54 8.63991C18.63 8.63991 18.72 8.58991 18.78 8.49991C18.85 8.36991 18.81 8.19991 18.68 8.12991C18.65 8.10991 17.78 7.61991 16.78 7.79991C16.63 7.81991 16.53 7.95991 16.56 8.10991C16.58 8.25991 16.73 8.35991 16.87 8.32991C17.6093 8.20214 18.2735 8.53247 18.3915 8.59116C18.4028 8.59678 18.41 8.59991 18.41 8.59991Z" fill="#212121"/>
<path d="M19.97 3.51C19.02 2.43 17.59 2 16.09 2H15H13.91C12.41 2 10.98 2.43 10.03 3.51C9.30003 4.34 8.90003 5.87 9.20003 7.57L9.27003 7.56C9.31003 7.53 9.35003 7.5 9.39003 7.48C10.48 6.81 11.76 6.4 13.03 6.19C13.68 6.08 14.34 6.02 15 6.01C15.66 6.02 16.31 6.09 16.97 6.19C18.24 6.4 19.52 6.81 20.61 7.48C20.65 7.51 20.69 7.53 20.73 7.56L20.8 7.57C21.09 5.87 20.7 4.34 19.97 3.51Z" fill="#0084CE"/>
<path d="M11.1601 6.25988C10.4501 6.56988 9.82007 6.99988 9.20007 7.56988L9.63007 8.07988C9.94007 8.45988 10.5001 8.56988 10.9501 8.32988C11.7401 7.90988 13.1401 7.33988 15.0001 7.33988C16.8601 7.33988 18.2601 7.90988 19.0501 8.32988C19.4901 8.56988 20.0501 8.45988 20.3701 8.07988L20.8001 7.56988C20.1701 6.99988 19.5401 6.56988 18.8301 6.25988C16.4001 5.16988 13.5901 5.16988 11.1601 6.25988Z" fill="#00A6ED"/>
<path d="M26 23C26.55 23 27 23.4103 27 23.9119V26H25V23.9119C25.01 23.4103 25.45 23 26 23Z" fill="#F4C6AD"/>
<path d="M25.6747 17.0429C25.484 16.9428 25.243 17.0729 25.243 17.293V18.844C25.243 19.2642 24.9017 19.6144 24.48 19.6044C24.0684 19.5944 23.7471 19.2642 23.7471 18.854V17.293C23.7471 17.0729 23.5061 16.9328 23.3154 17.0329C22.5322 17.4531 22.0102 18.2636 22.0001 19.2042C21.9901 20.1748 22.5523 21.0253 23.3656 21.4455C23.4559 21.4955 23.5162 21.5956 23.5162 21.6957V27.9994C23.5162 28.5497 23.968 29 24.5201 29C25.0723 29 25.5241 28.5497 25.5241 27.9994V21.6756C25.5241 21.5756 25.5844 21.4755 25.6747 21.4255C26.4679 21.0053 27 20.1748 27 19.2242C26.99 18.2936 26.4578 17.4631 25.6747 17.0429Z" fill="#9B9B9B"/>
<path d="M22.5091 25.5C22.5182 25.1 22.837 24.75 23.2105 24.75H26.2075C26.6447 24.75 27 25.14 27 25.62V29.13C27 29.61 26.6447 30 26.2075 30H23.2105C22.837 30 22.5182 29.69 22.5091 29.28C22.5 29.01 22.6184 28.77 22.8097 28.63C22.6184 28.5 22.5 28.27 22.5 28.01C22.5 27.75 22.6275 27.52 22.8097 27.39C22.6184 27.26 22.5 27.03 22.5 26.77C22.5 26.51 22.6275 26.28 22.8097 26.15C22.6275 26.01 22.5 25.77 22.5091 25.5Z" fill="#FFD7C2"/>
</svg>

<svg xmlns="http://www.w3.org/2000/svg" width="32" height="32" fill="none"><path fill="#212121" d="M8.63 8.364c.314-.304.57-.551.57-.794h11.6c0 .243.256.49.57.794.5.484 1.15 1.113 1.15 2.096 0 .51-.12 1-.33 1.43a.53.53 0 0 0 0 .46c.21.43.32.9.32 1.41 0 1.78-1.44 3.22-3.22 3.22h-8.58c-1.78 0-3.22-1.44-3.22-3.22 0-.51.11-.98.32-1.41a.53.53 0 0 0 0-.46c-.21-.43-.33-.92-.33-1.43 0-.983.65-1.612 1.15-2.096Z"/><path fill="#D3D3D3" d="M4 26.5V30h21.984v-3.434A11.066 11.066 0 0 0 22 18.047L21 18l-1-1.283a10.863 10.863 0 0 0-5.008-1.217c-1.797 0-3.494.432-4.992 1.198L9 18l-1 .013A10.983 10.983 0 0 0 4 26.5Z"/><path fill="#0084CE" d="M10 16.698c-.716.366-1.386.808-2 1.315V30h14V18.047a11.026 11.026 0 0 0-2-1.33V22a1 1 0 0 1-1 1h-8a1 1 0 0 1-1-1v-5.302Z"/><path fill="#E6E6E6" d="m11.88 21.54 2.71-2.34c.24-.2.58-.2.82 0l2.71 2.34c.37.26.88 0 .88-.46v-4.84c-1.24-.48-2.59-.75-4-.75-1.41 0-2.76.27-4 .75v4.84c0 .46.51.72.88.46Z"/><path fill="#F8312F" d="M12.24 24h-1.45C9.8 24 9 24.8 9 25.79s.8 1.79 1.79 1.79h1.45c.99 0 1.79-.8 1.79-1.79S13.23 24 12.24 24Z"/><path fill="#E6E6E6" d="M12.24 27.08h-1.45c-.71 0-1.29-.58-1.29-1.29 0-.71.58-1.29 1.29-1.29h1.45c.71 0 1.29.58 1.29 1.29 0 .72-.57 1.29-1.29 1.29Z"/><path fill="#F4C6AD" d="M15 18.67c-1.107 0-2-.92-2-2.06v-2.56c0-1.13.893-2.05 2-2.05s2 .92 2 2.06v2.56c-.01 1.13-.903 2.05-2 2.05ZM12.026 10.63a1.63 1.63 0 1 1-3.26 0 1.63 1.63 0 0 1 3.26 0ZM21.224 10.63a1.63 1.63 0 1 1-3.26 0 1.63 1.63 0 0 1 3.26 0Z"/><path fill="#FFD7C2" d="M18.91 7.31h-3.18c-1.26 0-2.44-.62-3.15-1.66-.13-.18-.39-.15-.47.05l-.07.18c-.23.56-.66.99-1.18 1.23-.03.02-.07.03-.1.04-.23.11-.78.48-.8 1.43l.13 3.17c.12 2.81 2.28 4.69 4.91 4.69 2.63 0 4.8-1.88 4.91-4.69l.12-3.02c-.01-1.33-.94-1.42-1.12-1.42Z"/><path fill="#000" d="M12.39 9.15c.57 0 1.03.39 1.32.83-.236.072-.467.138-.695.203-.438.126-.868.25-1.315.407l-.48-.43c-.2-.18-.18-.5.04-.66.31-.22.74-.35 1.13-.35ZM17.63 9.15c-.56 0-1.02.39-1.31.83.244.075.484.144.722.213.424.122.842.243 1.278.397l.48-.43c.2-.18.18-.5-.03-.66-.32-.23-.74-.35-1.14-.35Z"/><path fill="#fff" d="M11.21 10.31c.16-.61.71-1.06 1.36-1.06.68 0 1.24.49 1.37 1.13.03.14-.09.27-.23.27h-2.23c-.17 0-.31-.17-.27-.34ZM18.81 10.31c-.16-.61-.71-1.06-1.36-1.06-.68 0-1.24.49-1.37 1.13-.03.14.09.27.23.27h2.23c.18 0 .31-.17.27-.34Z"/><path fill="#7D4533" d="M11.89 10.41c0-.49.4-.89.89-.89a.892.892 0 0 1 .86 1.13h-1.72a.986.986 0 0 1-.03-.24ZM18.14 10.41c0-.49-.4-.89-.89-.89-.5 0-.9.4-.89.89 0 .09.01.16.03.24h1.72c.02-.08.03-.16.03-.24Z"/><path fill="#000" d="M12.78 9.9a.512.512 0 0 1 .45.75h-.9a.512.512 0 0 1 .45-.75ZM17.25 9.9a.512.512 0 0 0-.45.75h.9a.512.512 0 0 0-.45-.75Z"/><path fill="#fff" d="M12.63 10.06a.16.16 0 1 1-.32 0 .16.16 0 0 1 .32 0ZM17.1 10.06a.16.16 0 1 1-.32 0 .16.16 0 0 1 .32 0Z"/><path fill="#990838" d="M15 13.43c-.52 0-1.01-.12-1.42-.34-.14-.07-.29.09-.2.22.34.53.94.88 1.62.88.68 0 1.28-.35 1.62-.88.09-.13-.06-.29-.2-.22-.42.21-.9.34-1.42.34Z"/><path fill="#E5AF93" d="m14.63 10.19-.51 1.64c-.1.34.15.68.5.68h.75c.35 0 .6-.34.5-.68l-.51-1.64a.379.379 0 0 0-.73 0Z"/><path fill="#212121" d="M11.23 8.5c.05.09.14.14.23.14.04 0 .09-.01.13-.03.01-.01.73-.41 1.54-.27.14.03.28-.07.32-.23a.276.276 0 0 0-.22-.31c-.958-.173-1.788.27-1.89.325l-.01.005c-.13.08-.17.24-.1.37ZM18.41 8.6c.04.03.08.04.13.04.09 0 .18-.05.24-.14.07-.13.03-.3-.1-.37-.03-.02-.9-.51-1.9-.33-.15.02-.25.16-.22.31.02.15.17.25.31.22.74-.128 1.403.202 1.521.261a.44.44 0 0 0 .019.009Z"/><path fill="#0084CE" d="M19.97 3.51C19.02 2.43 17.59 2 16.09 2h-2.18c-1.5 0-2.93.43-3.88 1.51-.73.83-1.13 2.36-.83 4.06l.07-.01c.04-.03.08-.06.12-.08 1.09-.67 2.37-1.08 3.64-1.29.65-.11 1.31-.17 1.97-.18.66.01 1.31.08 1.97.18 1.27.21 2.55.62 3.64 1.29.04.03.08.05.12.08l.07.01c.29-1.7-.1-3.23-.83-4.06Z"/><path fill="#00A6ED" d="M11.16 6.26c-.71.31-1.34.74-1.96 1.31l.43.51c.31.38.87.49 1.32.25.79-.42 2.19-.99 4.05-.99 1.86 0 3.26.57 4.05.99.44.24 1 .13 1.32-.25l.43-.51c-.63-.57-1.26-1-1.97-1.31a9.404 9.404 0 0 0-7.67 0Z"/><path fill="#F4C6AD" d="M26 23c.55 0 1 .41 1 .912V26h-2v-2.088c.01-.502.45-.912 1-.912Z"/><path fill="#9B9B9B" d="M25.675 17.043c-.191-.1-.432.03-.432.25v1.551c0 .42-.341.77-.763.76a.746.746 0 0 1-.733-.75v-1.561c0-.22-.24-.36-.432-.26A2.482 2.482 0 0 0 22 19.204c-.01.97.552 1.821 1.366 2.241.09.05.15.15.15.25V28c0 .55.452 1.001 1.004 1.001s1.004-.45 1.004-1v-6.324c0-.1.06-.2.15-.25A2.487 2.487 0 0 0 27 19.224a2.52 2.52 0 0 0-1.325-2.181Z"/><path fill="#FFD7C2" d="M22.51 25.5c.008-.4.327-.75.7-.75h2.997c.438 0 .793.39.793.87v3.51c0 .48-.355.87-.793.87H23.21c-.373 0-.692-.31-.7-.72-.01-.27.108-.51.3-.65a.74.74 0 0 1-.31-.62c0-.26.128-.49.31-.62a.74.74 0 0 1-.31-.62c0-.26.128-.49.31-.62a.79.79 0 0 1-.3-.65Z"/></svg>
